actions/22x22-dark/media-optical-burn.svg

<svg viewBox="0 0 22 22" xmlns="http://www.w3.org/2000/svg"><path d="m11 3c-4.432 0-8 3.568-8 8s3.568 8 8 8 8-3.568 8-8-3.568-8-8-8zm4.414062 5.5019531c.014276-.003326.030243-.0002273.041016.0097657.010788.0099782.015938.0245514.013672.0390624-.000294.0018544-.02905.1948901.033203.4570313.057264.2410221.205633.5926349.585938.8964844.486341.3885611.842315.7979041 1.05664 1.2167971.191499.374271.265277.746503.222657 1.105468-.065639.552937-.413849 1.027156-.931641 1.269532-.005975.002796-.011235.003906-.017578.003906-.010758 0-.021011-.004213-.029297-.011719-.013172-.011935-.019574-.030097-.013672-.046875.186113-.529036-.073317-1.052352-.265625-1.201172-.031686.11865-.137861.355615-.484375.410157-.012627.002016-.025369-.001495-.035156-.009766s-.015449-.020414-.015625-.033203c-.003768-.284644-.151793-.772458-.527344-.966797.123771.331326-.035188.511685-.216797.716797-.206245.232898-.440098.496732-.373047 1.082031.000766.003267.001953.006263.001953.009766 0 .024386-.020535.044922-.044922.044922-.006048 0-.011853-.001375-.017578-.003907-.148127-.065535-.509011-.264446-.646484-.685546-.128745-.394375-.031447-.875923.289062-1.431641.064447-.111718.083834-.207851.058594-.296875-.050656-.178607-.28298-.30465-.453125-.396484-.012892-.006962-.021966-.020587-.023437-.035157-.001472-.014584.004381-.02772.015625-.037109.180888-.151027.400141-.228516.65039-.228516.09497 0 .194268.011069.296875.033203-.196046-.488122-.165784-.9974587.085938-1.4101559.229042-.3755512.723169-.4950697.74414-.5zm-4.414062 1.4980469c.553999 0 1 .446001 1 1s-.446001 1-1 1-1-.446001-1-1 .446001-1 1-1z" fill="#f2f2f2"/></svg>

<svg xmlns="http://www.w3.org/2000/svg" viewBox="0 0 22 22">
  <defs id="defs3051">
    <style type="text/css" id="current-color-scheme">
      .ColorScheme-Text {
        color:#f2f2f2
      }
      </style>
  </defs>
 <path 
     style="fill:currentColor;fill-opacity:1;stroke:none"      
	 class="ColorScheme-Text"
        d="M 11 3 C 6.568 3 3 6.568 3 11 C 3 15.432 6.568 19 11 19 C 15.432 19 19 15.432 19 11 C 19 6.568 15.432 3 11 3 z M 15.414062 8.5019531 C 15.428338 8.4986271 15.444305 8.5017258 15.455078 8.5117188 C 15.465866 8.521697 15.471016 8.5362702 15.46875 8.5507812 C 15.468456 8.5526356 15.4397 8.7456713 15.501953 9.0078125 C 15.559217 9.2488346 15.707586 9.6004474 16.087891 9.9042969 C 16.574232 10.292858 16.930206 10.702201 17.144531 11.121094 C 17.33603 11.495365 17.409808 11.867597 17.367188 12.226562 C 17.301549 12.779499 16.953339 13.253718 16.435547 13.496094 C 16.429572 13.49889 16.424312 13.5 16.417969 13.5 C 16.407211 13.5 16.396958 13.495787 16.388672 13.488281 C 16.3755 13.476346 16.369098 13.458184 16.375 13.441406 C 16.561113 12.91237 16.301683 12.389054 16.109375 12.240234 C 16.077689 12.358884 15.971514 12.595849 15.625 12.650391 C 15.612373 12.652407 15.599631 12.648896 15.589844 12.640625 C 15.580057 12.632354 15.574395 12.620211 15.574219 12.607422 C 15.570451 12.322778 15.422426 11.834964 15.046875 11.640625 C 15.170646 11.971951 15.011687 12.15231 14.830078 12.357422 C 14.623833 12.59032 14.38998 12.854154 14.457031 13.439453 C 14.457797 13.44272 14.458984 13.445716 14.458984 13.449219 C 14.458984 13.473605 14.438449 13.494141 14.414062 13.494141 C 14.408014 13.494141 14.402209 13.492766 14.396484 13.490234 C 14.248357 13.424699 13.887473 13.225788 13.75 12.804688 C 13.621255 12.410313 13.718553 11.928765 14.039062 11.373047 C 14.103509 11.261329 14.122896 11.165196 14.097656 11.076172 C 14.047 10.897565 13.814676 10.771522 13.644531 10.679688 C 13.631639 10.672726 13.622565 10.659101 13.621094 10.644531 C 13.619622 10.629947 13.625475 10.616811 13.636719 10.607422 C 13.817607 10.456395 14.03686 10.378906 14.287109 10.378906 C 14.382079 10.378906 14.481377 10.389975 14.583984 10.412109 C 14.387938 9.923987 14.4182 9.4146503 14.669922 9.0019531 C 14.898964 8.6264019 15.393091 8.5068834 15.414062 8.5019531 z M 11 10 C 11.553999 10 12 10.446001 12 11 C 12 11.553999 11.553999 12 11 12 C 10.446001 12 10 11.553999 10 11 C 10 10.446001 10.446001 10 11 10 z "
     />
</svg>
